flaticon/gastronomy/teapot.svg

<svg xmlns="http://www.w3.org/2000/svg" width="32" height="32" viewBox="0 0 24 24">
    <path d="M 18.027344 9.390625 L 17.132812 10.644531 C 16.175781 9.734375 15.097656 9.046875 13.933594 8.613281 C 13.902344 8.601562 13.871094 8.589844 13.84375 8.578125 C 13.6875 8.523438 13.527344 8.476562 13.367188 8.429688 C 13.261719 8.398438 13.152344 8.367188 13.042969 8.339844 C 12.914062 8.304688 12.78125 8.277344 12.648438 8.25 C 12.628906 8.246094 12.605469 8.238281 12.585938 8.234375 C 12.863281 7.898438 13.035156 7.472656 13.035156 7.003906 C 13.035156 5.925781 12.160156 5.046875 11.082031 5.046875 C 10.003906 5.046875 9.125 5.925781 9.125 7.003906 C 9.125 7.472656 9.296875 7.898438 9.574219 8.234375 C 9.554688 8.238281 9.535156 8.246094 9.511719 8.25 C 9.378906 8.277344 9.246094 8.304688 9.117188 8.339844 C 9.007812 8.367188 8.898438 8.398438 8.792969 8.429688 C 8.632812 8.476562 8.476562 8.523438 8.320312 8.578125 C 8.289062 8.589844 8.257812 8.601562 8.226562 8.613281 C 7.882812 8.742188 7.550781 8.894531 7.222656 9.0625 C 6.441406 8.175781 5.3125 7.65625 4.128906 7.65625 C 1.851562 7.65625 0 9.507812 0 11.78125 C 0 13.238281 0.75 14.542969 1.976562 15.292969 C 1.609375 16.230469 1.320312 17.238281 1.128906 18.308594 C 0.945312 19.34375 1.203125 20.402344 1.824219 21.144531 C 2.285156 21.691406 2.890625 21.996094 3.53125 21.996094 L 18.628906 21.996094 C 19.269531 21.996094 19.875 21.691406 20.335938 21.144531 C 20.957031 20.402344 21.21875 19.34375 21.035156 18.308594 C 20.695312 16.410156 20.058594 14.695312 19.191406 13.234375 L 22.183594 9.394531 L 18.027344 9.394531 Z M 12.507812 9.109375 C 12.648438 9.136719 12.785156 9.167969 12.921875 9.207031 C 13.042969 9.238281 13.164062 9.269531 13.28125 9.308594 C 13.421875 9.351562 13.558594 9.402344 13.695312 9.453125 C 13.742188 9.472656 13.789062 9.492188 13.835938 9.507812 C 14.324219 9.707031 14.800781 9.957031 15.261719 10.261719 L 6.917969 10.261719 C 7.046875 10.175781 7.171875 10.089844 7.304688 10.011719 C 7.324219 10 7.34375 9.988281 7.363281 9.976562 L 7.410156 9.949219 C 7.707031 9.78125 8.011719 9.636719 8.324219 9.511719 C 8.371094 9.492188 8.417969 9.472656 8.464844 9.453125 C 8.601562 9.398438 8.738281 9.351562 8.878906 9.308594 C 8.996094 9.269531 9.117188 9.238281 9.238281 9.203125 C 9.375 9.167969 9.515625 9.136719 9.652344 9.109375 C 9.820312 9.074219 9.984375 9.042969 10.152344 9.023438 C 10.226562 9.011719 10.300781 9.003906 10.375 8.996094 C 10.609375 8.976562 10.84375 8.957031 11.082031 8.957031 C 11.316406 8.957031 11.550781 8.972656 11.785156 8.996094 C 11.859375 9.003906 11.933594 9.011719 12.007812 9.023438 C 12.175781 9.042969 12.34375 9.074219 12.507812 9.109375 Z M 11.082031 5.917969 C 11.679688 5.917969 12.167969 6.402344 12.167969 7.003906 C 12.167969 7.601562 11.679688 8.089844 11.082031 8.089844 C 10.480469 8.089844 9.996094 7.601562 9.996094 7.003906 C 9.996094 6.402344 10.480469 5.917969 11.082031 5.917969 Z M 0.867188 11.78125 C 0.867188 9.984375 2.332031 8.523438 4.128906 8.523438 C 5.007812 8.523438 5.847656 8.886719 6.457031 9.511719 C 4.75 10.625 3.308594 12.34375 2.320312 14.488281 C 1.414062 13.890625 0.867188 12.890625 0.867188 11.78125 Z M 19.671875 20.585938 C 19.378906 20.933594 19.007812 21.125 18.628906 21.125 L 3.53125 21.125 C 3.152344 21.125 2.785156 20.933594 2.492188 20.585938 C 2.042969 20.046875 1.847656 19.234375 1.984375 18.457031 C 2.164062 17.453125 2.433594 16.507812 2.777344 15.625 L 2.925781 15.273438 C 3.640625 13.589844 4.660156 12.144531 5.871094 11.066406 C 5.953125 11.105469 6.035156 11.128906 6.128906 11.128906 L 16.03125 11.128906 C 16.132812 11.128906 16.226562 11.097656 16.3125 11.054688 C 16.417969 11.148438 16.519531 11.253906 16.625 11.355469 L 16.871094 11.617188 C 17.390625 12.15625 17.867188 12.773438 18.289062 13.445312 L 18.5625 13.882812 C 19.3125 15.210938 19.875 16.753906 20.175781 18.457031 C 20.316406 19.234375 20.121094 20.046875 19.671875 20.585938 Z M 17.75 11.277344 L 18.472656 10.261719 L 20.402344 10.261719 L 18.695312 12.457031 C 18.402344 12.035156 18.082031 11.644531 17.75 11.277344 Z M 17.75 11.277344"/>
    <path d="M19.554688 8.523438C19.691406 8.523438 19.828125 8.457031 19.910156 8.335938L20.160156 7.980469C20.296875 7.78125 20.246094 7.511719 20.046875 7.375 19.851562 7.238281 19.582031 7.285156 19.445312 7.484375L19.195312 7.839844C19.058594 8.039062 19.109375 8.308594 19.304688 8.445312 19.382812 8.5 19.46875 8.523438 19.554688 8.523438zM20.589844 7.027344C20.726562 7.027344 20.863281 6.960938 20.949219 6.839844L21.472656 6.082031C21.609375 5.882812 21.558594 5.613281 21.363281 5.476562 21.164062 5.339844 20.894531 5.390625 20.757812 5.585938L20.234375 6.34375C20.097656 6.542969 20.144531 6.8125 20.34375 6.949219 20.417969 7.003906 20.503906 7.027344 20.589844 7.027344zM21.902344 5.128906C22.042969 5.128906 22.175781 5.066406 22.261719 4.941406L22.785156 4.183594C22.921875 3.984375 22.875 3.714844 22.675781 3.578125 22.480469 3.441406 22.207031 3.492188 22.070312 3.6875L21.546875 4.449219C21.410156 4.644531 21.457031 4.914062 21.65625 5.050781 21.730469 5.105469 21.816406 5.128906 21.902344 5.128906zM23.21875 3.230469C23.355469 3.230469 23.492188 3.167969 23.574219 3.042969L23.824219 2.6875C23.957031 2.492188 23.910156 2.21875 23.710938 2.082031 23.515625 1.945312 23.242188 1.996094 23.109375 2.191406L22.859375 2.550781C22.722656 2.746094 22.773438 3.019531 22.96875 3.15625 23.046875 3.207031 23.132812 3.230469 23.21875 3.230469zM21.183594 7.484375L20.933594 7.839844C20.796875 8.039062 20.847656 8.308594 21.046875 8.445312 21.121094 8.5 21.207031 8.523438 21.292969 8.523438 21.429688 8.523438 21.566406 8.457031 21.648438 8.335938L21.898438 7.980469C22.035156 7.78125 21.984375 7.511719 21.785156 7.375 21.589844 7.238281 21.320312 7.289062 21.183594 7.484375zM22.292969 5.878906L21.847656 6.523438C21.714844 6.71875 21.761719 6.988281 21.960938 7.125 22.035156 7.179688 22.121094 7.203125 22.207031 7.203125 22.34375 7.203125 22.480469 7.136719 22.5625 7.015625L23.007812 6.375C23.144531 6.175781 23.097656 5.90625 22.898438 5.769531 22.699219 5.632812 22.429688 5.679688 22.292969 5.878906zM23.8125 4.449219C23.613281 4.3125 23.34375 4.363281 23.207031 4.558594L22.960938 4.914062C22.824219 5.113281 22.875 5.382812 23.070312 5.519531 23.144531 5.574219 23.230469 5.597656 23.316406 5.597656 23.457031 5.597656 23.589844 5.53125 23.675781 5.410156L23.921875 5.054688C24.058594 4.855469 24.011719 4.585938 23.8125 4.449219zM23.8125 4.449219"/>
</svg>

<svg xmlns="http://www.w3.org/2000/svg" width="32" height="32" viewBox="0 0 24 24">
    <path d="M18.027 9.39l-.894 1.255c-.957-.91-2.035-1.598-3.2-2.032-.03-.011-.062-.023-.09-.035a9.635 9.635 0 0 0-.476-.148 7.85 7.85 0 0 0-.719-.18c-.02-.004-.043-.012-.062-.016.277-.336.45-.761.45-1.23a1.957 1.957 0 0 0-1.954-1.957 1.96 1.96 0 0 0-1.957 1.957c0 .469.172.894.45 1.23-.02.004-.04.012-.063.016a7.849 7.849 0 0 0-.719.18c-.16.047-.316.093-.473.148l-.093.035a9.6 9.6 0 0 0-1.004.45 4.136 4.136 0 0 0-3.094-1.407A4.132 4.132 0 0 0 0 11.781c0 1.457.75 2.762 1.977 3.512a15.975 15.975 0 0 0-.848 3.016c-.184 1.035.074 2.093.695 2.836.461.546 1.067.851 1.707.851H18.63c.64 0 1.246-.305 1.707-.851.621-.743.883-1.801.7-2.836-.34-1.899-.977-3.614-1.845-5.075l2.993-3.84h-4.157zm-5.52-.28c.141.027.278.058.415.097.121.031.242.063.36.102.14.043.277.093.413.144a8.197 8.197 0 0 1 1.566.809H6.919c.129-.086.254-.172.387-.25l.058-.035.047-.028c.297-.168.602-.312.914-.437l.14-.059c.138-.055.274-.101.415-.144.117-.04.238-.07.36-.106.136-.035.277-.066.413-.094.168-.035.332-.066.5-.086a8.48 8.48 0 0 1 .93-.066 7.068 7.068 0 0 1 1.426.152zm-1.425-3.192a1.086 1.086 0 1 1 0 2.172 1.086 1.086 0 0 1 0-2.172zM.867 11.781A3.264 3.264 0 0 1 4.13 8.523a3.26 3.26 0 0 1 2.328.989c-1.707 1.113-3.148 2.832-4.137 4.976a3.22 3.22 0 0 1-1.453-2.707zm18.805 8.805c-.293.348-.664.539-1.043.539H3.53c-.379 0-.746-.191-1.039-.54-.449-.538-.644-1.35-.508-2.128.18-1.004.45-1.95.793-2.832l.149-.352c.715-1.683 1.734-3.128 2.945-4.207.082.04.164.063.258.063h9.902a.628.628 0 0 0 .282-.074c.105.093.207.199.312.3l.246.262c.52.54.996 1.156 1.418 1.828l.273.438a14.39 14.39 0 0 1 1.614 4.574c.14.777-.055 1.59-.504 2.129zm-1.922-9.309l.723-1.015h1.93l-1.708 2.195a11.788 11.788 0 0 0-.945-1.18zm0 0"/>
    <path d="M19.555 8.523a.43.43 0 0 0 .355-.187l.25-.356a.434.434 0 0 0-.113-.605.43.43 0 0 0-.602.11l-.25.355a.437.437 0 0 0 .36.683zm0 0M20.59 7.027a.443.443 0 0 0 .36-.187l.523-.758a.437.437 0 0 0-.11-.605.437.437 0 0 0-.605.109l-.524.758a.433.433 0 0 0 .356.683zm0 0M21.902 5.129c.141 0 .274-.063.36-.188l.523-.757a.433.433 0 0 0-.11-.606.437.437 0 0 0-.605.11l-.523.761a.43.43 0 0 0 .11.602.41.41 0 0 0 .245.078zm0 0M23.219 3.23a.421.421 0 0 0 .355-.187l.25-.356a.438.438 0 0 0-.113-.605.432.432 0 0 0-.602.11l-.25.359a.437.437 0 0 0 .11.605c.078.051.164.074.25.074zm0 0M21.184 7.484l-.25.356a.434.434 0 0 0 .113.605.43.43 0 0 0 .602-.11l.25-.355a.434.434 0 0 0-.715-.496zm0 0M22.293 5.879l-.445.644a.434.434 0 0 0 .113.602.43.43 0 0 0 .602-.11l.445-.64a.433.433 0 0 0-.11-.605.433.433 0 0 0-.605.109zm0 0M23.813 4.45a.437.437 0 0 0-.606.109l-.246.355a.437.437 0 0 0 .355.684c.141 0 .274-.067.36-.188l.246-.355a.433.433 0 0 0-.11-.606zm0 0"/>
</svg>
